X: 107
T:Peggy Band. JC.107
M:3/4
L:1/8
Q:160
S:John Clare,Poet,Helpston. (1793-1864)
R:Waltz
O:England
A:Northamptonshire
N:
Z:vmp.P. Headford
K:D
A2|d2fdec|dBG2AF|DFA2Bc|d4A2|!
d2fdec|dBG2AF|DFA2Bc|d4:|!
|:A2|e2efge|f2dB cd|efgfed|d2c2A2|!
d2fdec|dBG2AF|DFA2Bc|d4:|]
W:Song text exists. See Deacon. |
